X: 122
Q: "slow"
M: C
L: 1/8
K: D
V: 1
|:\
V: 2 clef=bass middle=d
|:\
d'2 "4;2"c'2 "5"b2 "6"f2 | "6"g2 zA A2 z"6"f | g2 "6;4"a2 b2 "6"f2 | "6"g2 zA A2 zA |
dA zD Gd zd | "6;4"a"5;3"A zd G2 zA | dA zd Gd zd | "6;4"a"5;3"A ze G2 d2 :|

